static/assets/img/icons/theme/text/edit-text.svg

<svg height="24" viewBox="0 0 24 24" width="24" xmlns="http://www.w3.org/2000/svg"><g fill="none" fill-rule="evenodd"><path d="m0 0h24v24h-24z" opacity="0"/><g fill="#000"><path d="m3 19h2v2h-2zm5 0h2v2h-2zm5 0h2v2h-2zm5 0h2v2h-2z" opacity=".3"/><path d="m10.504 3.256h1.962l5.49 12.744h-2.592l-1.188-2.916h-5.52599996l-1.152 2.916h-2.538zm2.88 7.884-1.962-5.184-1.99799996 5.184z"/></g></g></svg>

<svg width="24px" height="24px" viewBox="0 0 24 24" version="1.1" xmlns="http://www.w3.org/2000/svg" xmlns:xlink="http://www.w3.org/1999/xlink">
    <title>Icon For Edit-text</title>
    <g stroke="none" stroke-width="1" fill="none" fill-rule="evenodd">
        <rect opacity="0" x="0" y="0" width="24" height="24"></rect>
        <path d="M3,19 L5,19 L5,21 L3,21 L3,19 Z M8,19 L10,19 L10,21 L8,21 L8,19 Z M13,19 L15,19 L15,21 L13,21 L13,19 Z M18,19 L20,19 L20,21 L18,21 L18,19 Z" fill="#000000" opacity="0.3"></path>
        <path d="M10.504,3.256 L12.466,3.256 L17.956,16 L15.364,16 L14.176,13.084 L8.65000004,13.084 L7.49800004,16 L4.96000004,16 L10.504,3.256 Z M13.384,11.14 L11.422,5.956 L9.42400004,11.14 L13.384,11.14 Z" fill="#000000"></path>
    </g>
</svg>
